public/assets/img/icons/where02.svg

<svg width="80" height="80" viewBox="0 0 80 80" fill="none" xmlns="http://www.w3.org/2000/svg">
<path d="M21.4302 50.5259C19.067 50.5259 17.1445 52.4146 17.1445 54.7364C17.1445 57.0581 19.067 58.9469 21.4302 58.9469C23.7934 58.9469 25.7159 57.0581 25.7159 54.7364C25.7159 52.4146 23.7934 50.5259 21.4302 50.5259ZM21.4302 56.1399C20.642 56.1399 20.0017 55.5101 20.0017 54.7364C20.0017 53.9627 20.642 53.3329 21.4302 53.3329C22.2184 53.3329 22.8588 53.9627 22.8588 54.7364C22.8588 55.5101 22.2184 56.1399 21.4302 56.1399Z" fill="#333333"/>
<path d="M61.6205 18.7147L59.0898 20.8452C58.4898 21.3498 58.4202 22.2357 58.9334 22.8245C59.2166 23.148 59.6169 23.3143 60.0187 23.3143C60.348 23.3143 60.6787 23.2034 60.948 22.9764L64.6505 19.8596C64.9533 19.6052 65.1334 19.2385 65.1487 18.848C65.1641 18.4568 65.0134 18.0778 64.7316 17.8017L61.0291 14.1655C60.4712 13.6175 59.567 13.6175 59.0091 14.1655C58.4512 14.7136 58.4512 15.6027 59.0091 16.1501L61.6205 18.7147Z" fill="#333333"/>
<path d="M49.2018 22.9764C49.471 23.2031 49.8018 23.3143 50.131 23.3143C50.5328 23.3143 50.9332 23.1477 51.2164 22.8245C51.73 22.2357 51.66 21.3498 51.06 20.8452L48.5293 18.7147L51.1407 16.1501C51.6985 15.6024 51.6985 14.7136 51.1407 14.1655C50.5828 13.6175 49.6785 13.6175 49.1207 14.1655L45.4182 17.8017C45.1364 18.0778 44.9857 18.4568 45.0011 18.848C45.0164 19.2385 45.1964 19.6052 45.4993 19.8596L49.2018 22.9764Z" fill="#333333"/>
<path d="M54.4884 22.7753C54.5705 22.7889 54.6516 22.796 54.7327 22.796C55.4148 22.796 56.0191 22.3142 56.1391 21.6318L57.1966 15.616C57.3305 14.8517 56.8101 14.1254 56.0316 13.9939C55.2587 13.8623 54.5152 14.3742 54.3812 15.1377L53.3237 21.1535C53.1898 21.9174 53.7102 22.6437 54.4884 22.7753Z" fill="#333333"/>
<path d="M77.1425 0H32.8571C31.2821 0 30 1.25895 30 2.80702V40.7018C30 42.2499 31.2821 43.5088 32.8571 43.5088H41.4285V49.1229C41.4285 49.7327 41.8303 50.2734 42.4217 50.4593C42.5642 50.5046 42.7121 50.5264 42.8571 50.5264C43.3092 50.5264 43.7456 50.3144 44.0192 49.9383L48.6942 43.5088H77.1425C78.7175 43.5088 79.9997 42.2499 79.9997 40.7018V2.80702C79.9997 1.25895 78.7175 0 77.1425 0ZM77.1425 2.80702V32.2807H32.8571V2.80702H77.1425ZM47.9588 40.7018C47.497 40.7018 47.0645 40.9204 46.7967 41.2899L44.2856 44.7432V42.1053C44.2856 41.3302 43.6467 40.7018 42.8571 40.7018H32.8571V35.0878H77.1425V40.7018H47.9588Z" fill="#333333"/>
<path d="M72.8564 77.1929H37.1423V60.3507H41.428C42.0155 60.3507 42.5426 59.9971 42.7576 59.4606C42.9726 58.9234 42.8301 58.3114 42.4005 57.9185L22.4006 39.6728C21.851 39.1725 21.0056 39.1725 20.456 39.6728L0.456119 57.9185C0.0264786 58.3111 -0.116021 58.923 0.0989782 59.4606C0.31362 59.9971 0.840759 60.3507 1.42826 60.3507H5.71394V78.5964C5.71394 79.3715 6.35287 79.9999 7.14251 79.9999H72.8564C73.646 79.9999 74.285 79.3715 74.285 78.5964C74.285 77.8213 73.646 77.1929 72.8564 77.1929ZM24.2853 77.1929H18.571V67.3683H24.2853V77.1929ZM34.2852 58.9472V77.1929H27.1424V65.9648C27.1424 65.1897 26.5035 64.5613 25.7138 64.5613H17.1424C16.3528 64.5613 15.7139 65.1897 15.7139 65.9648V77.1929H8.57107V58.9472C8.57107 58.1722 7.93214 57.5437 7.14251 57.5437H5.0668L21.4281 42.617L37.7895 57.5437H35.7138C34.9241 57.5437 34.2852 58.1722 34.2852 58.9472Z" fill="#333333"/>
</svg>

<svg width="80" height="80" fill="none" xmlns="http://www.w3.org/2000/svg"><path d="M21.43 50.526c-2.363 0-4.285 1.889-4.285 4.21 0 2.322 1.922 4.21 4.285 4.21 2.363 0 4.286-1.888 4.286-4.21 0-2.321-1.923-4.21-4.286-4.21zm0 5.614c-.788 0-1.428-.63-1.428-1.404 0-.773.64-1.403 1.428-1.403.788 0 1.429.63 1.429 1.403 0 .774-.64 1.404-1.429 1.404zM61.62 18.715l-2.53 2.13c-.6.505-.67 1.39-.157 1.98.284.323.684.49 1.086.49.329 0 .66-.112.929-.339l3.702-3.116a1.387 1.387 0 0 0 .081-2.058l-3.702-3.636a1.446 1.446 0 0 0-2.02 0 1.386 1.386 0 0 0 0 1.984l2.611 2.565zM49.202 22.976c.269.227.6.338.929.338a1.44 1.44 0 0 0 1.085-.49 1.386 1.386 0 0 0-.156-1.979l-2.53-2.13 2.61-2.565a1.386 1.386 0 0 0 0-1.984 1.446 1.446 0 0 0-2.02 0l-3.702 3.636a1.387 1.387 0 0 0 .081 2.058l3.703 3.116zM54.488 22.775a1.423 1.423 0 0 0 1.65-1.144l1.059-6.015a1.406 1.406 0 0 0-1.165-1.622c-.773-.132-1.517.38-1.65 1.144l-1.058 6.016a1.406 1.406 0 0 0 1.164 1.621z" fill="#333"/><path d="M77.142 0H32.858C31.282 0 30 1.259 30 2.807v37.895c0 1.548 1.282 2.807 2.857 2.807h8.572v5.614c0 .61.401 1.15.993 1.336a1.441 1.441 0 0 0 1.597-.52l4.675-6.43h28.448c1.576 0 2.858-1.26 2.858-2.807V2.807C80 1.259 78.718 0 77.142 0zm0 2.807v29.474H32.858V2.807h44.285zM47.96 40.702c-.462 0-.895.218-1.162.588l-2.511 3.453v-2.638c0-.775-.64-1.403-1.429-1.403h-10v-5.614h44.285v5.614H47.96zM72.856 77.193H37.142V60.35h4.286a1.43 1.43 0 0 0 1.33-.89 1.388 1.388 0 0 0-.358-1.542l-20-18.246c-.549-.5-1.394-.5-1.944 0l-20 18.245A1.388 1.388 0 0 0 .1 59.462c.215.536.742.89 1.33.89h4.285v18.245c0 .775.639 1.404 1.429 1.404h65.713c.79 0 1.429-.629 1.429-1.404 0-.775-.639-1.403-1.429-1.403zm-48.57 0H18.57v-9.825h5.714v9.825zm10-18.246v18.246h-7.144V65.965c0-.775-.639-1.404-1.428-1.404h-8.572c-.79 0-1.428.629-1.428 1.404v11.228H8.57V58.947c0-.775-.639-1.403-1.428-1.403H5.067l16.361-14.927L37.79 57.544h-2.075c-.79 0-1.429.628-1.429 1.403z" fill="#333"/></svg>
